X: 14355
T: Gallowglass, The
R: jig
M: 6/8
K: Gminor
A|:BGG dGc|BGG G2A|BAG d=ef|cAF F2A|
BAG dGc|Bdg d2c|BAG FGA|1 BGG G2A:|2 BGG GBd||
g2g dec|BGG G2A|BAG d=ef|cAF F2d|
g2g dec|BGG d2c|BAG FGA|BGG GBd|
g2g dec|BGG G2A|BAG d=ef|cAF F2d|
gdf =ecA|dBG cAF|GAB cAd|BGG G2A||

